X: 16279
T: Grey Old Lady Of Raasay, The
R: reel
M: 4/4
K: Amixolydian
~A2gA aeef|g2ag fdde|~A2gA aeeg|1 fAec B2Be:|2 fAec B2Ba||
|:cA~A2 ecce|f2~A2 ecca|cA~A2 ecce|1 fAec B2Ba:|2 fAec B2Be||

